X:1
T:St. Pierre, CMD
T:St. Pierre, CMD
T:Daniel Brink Towner, 1893
T:Public Domain Courtesy of the Cyber Hymnal™
C:Daniel Brink Towner, 1893
Z:Public Domain
Z:Courtesy of the Cyber Hymnal™
%%score ( 1 2 ) ( 3 4 )
L:1/8
Q:1/4=105
M:4/4
K:Bb
V:1 treble 
V:2 treble 
V:3 bass 
V:4 bass 
V:1
 [DF]2 | [Fd]3 [Ec] [DB]2 [B,D]2 | [DF]2 [FB]2 [EA]3 [EG] | [CF]3 C [CF]2 [CE]2 | [B,D]6 [B,D]2 | %5
 [DG]3 [GA] [GB][GB] [GA]>G | [^Fd]6 [DA]2 | [=Ec]3 F [FA]2 [EG]2 | F6 F2 | [Fe]3 [Fc] AG [EF]2 | %10
 [Fd]3 [DB] ([DF][B,D]) ([DF][FB]) | [EA]3 [EG] [DF]2 [Fe]2 | [Fd]6 [Fd]2 | %13
 [Ff]3 [Ff] [Fe]2 [Fd]2 | [Gc]2 [GB]2 !fermata![Ge]2 [^CG]2 | %15
 ([DF][^C=E]) ([DF][F_e]) [Fd]3 [_E=c] | [DB]6 |] %17
V:2
 x2 | x8 | x8 | x3 C x4 | x8 | x15/2 G/ | x8 | x3 F x4 | F6 F2 | x4 E2 x2 | x8 | x8 | x8 | x8 | %14
 x8 | x8 | x6 |] %17
V:3
 [B,,B,]2 | [B,,B,]3 [B,,F,] [B,,F,]2 [B,,F,]2 | [B,,B,]2 [D,B,]2 [F,C]3 [F,C] | %3
 [F,A,]3 [F,A,] [F,A,]2 [F,A,]2 | [B,,B,]6 B,2 | [G,B,]3 [G,C] [G,D][G,D] [G,C]>[G,B,] | %6
 [D,A,]6 [D,^F,]2 | [C,G,]3 [C,A,] [C,C]2 [C,B,]2 | [F,A,]6 [F,A,]2 | [F,A,]3 [F,A,] F,2 [F,A,]2 | %10
 [B,,B,]3 [B,,F,] [B,,B,]2 (B,D) | [F,C]3 [F,C] [F,B,]2 [F,A,]2 | [B,,B,]6 [B,,B,]2 | %13
 [D,B,]3 [D,B,] [C,A,]2 [B,,B,]2 | [E,B,]2 [E,B,]2 !fermata![E,B,]2 [D,B,]2 | %15
 [F,B,]2 (B,C) [F,B,]3 [F,A,] | [B,,B,]6 |] %17
V:4
 x2 | x8 | x8 | x8 | x6 B,2 | x8 | x8 | x8 | x8 | x4 F,2 x2 | x6 B,,2 | x8 | x8 | x8 | x8 | %15
 x2 F,2 x4 | x6 |] %17

